X: 6
T:Foliada de Monforte
M:3/4
L:1/8
Q:270
C:Trad
R:Foliada
B:Leccións de Gaita. OTERO COVELO
K:C
GFEF |: G2E2F2 | G2 AGFG | A2F2G2 | A2BAGA|
B2G2A2 | B2c3B| A4 G2- | G2 GFEF | G2 E2F2 | G2 AGFG| 
A2F2G2 | A2BAGA| B2 G2 A2 | B2 A3G| F4 E2- |1 E2 GFEF :|2
E6 |: G2G2G2 | E2C2E2| G4 G2- | G6 | A3AA2|
c2B2A2 | GAGF E2- |1 E6 :|2 E2 B,2C2 |: D2E2F2- |
F2 E4 | F2G2A2- |A2 c4| B2A2G2- | G2 F4 | A4 G2- |
G2 B,2C2 | D2E2F2- | F2 E4| F2G2A2- | A2B4| A2G2F2- |
F2 G4 | F4 E2- |1 E2 B,2 C2 :|2 E6- | E2 ||

